src/images/how-it-works-arrow-12.svg

<svg width="50" height="50" fill="none" xmlns="http://www.w3.org/2000/svg"><path d="M2 2c19.7436 8.1864 33.5328 24.5984 40 44" stroke="#000" stroke-width="3" stroke-linecap="round"/><path d="M33.2295 44.1725c2.3428.3825 4.3827 1.8589 6.6349 2.5519.5869.1806 1.5634.5427 1.9719.9512.644.644 1.154.776 1.624-.0464.3805-.666.7136-1.3563 1.0439-2.0995.3102-.698.8476-1.996 1.3571-2.5055.3797-.3797 1.014-1.5353 1.1368-2.0879.1734-.7805 1.0556-1.607 1.0556-2.4011" stroke="#000" stroke-width="3" stroke-linecap="round"/></svg>

<svg width="50" height="50" viewBox="0 0 50 50" fill="none" xmlns="http://www.w3.org/2000/svg">
<path d="M2 2C21.7436 10.1864 35.5328 26.5984 42 46" stroke="black" stroke-width="3" stroke-linecap="round"/>
<path d="M33.2295 44.1725C35.5723 44.555 37.6122 46.0314 39.8644 46.7244C40.4513 46.905 41.4278 47.2671 41.8363 47.6756C42.4803 48.3196 42.9903 48.4516 43.4603 47.6292C43.8408 46.9632 44.1739 46.2729 44.5042 45.5297C44.8144 44.8317 45.3518 43.5337 45.8613 43.0242C46.241 42.6445 46.8753 41.4889 46.9981 40.9363C47.1715 40.1558 48.0537 39.3293 48.0537 38.5352" stroke="black" stroke-width="3" stroke-linecap="round"/>
</svg>
